!!!OTL: Ein Lied vom Glauben. (1524.)
!!!ARE: Europa, Mitteleuropa, Deutschland
!!!SCT: A0625
!!!TXL: @@GMH
!!!YEM: Copyright 1995, estate of Helmut Schaffrath.
**kern	**text
!! Mixed meters:  3/1; 4/2
*M4/2	*
*met(c|)	*
*clefC4	*
*k[]	*
*D:dor	*
=1	=1
!LO:TX:a:t=dor.	!
2ryy	.
{2D	Jn
2D	Jhe-
2D	-ſus
=2	=2
*M3/1	*
1A	na-
2G	-men
2A/	hebn
1B	wir
=3	=3
1A	an,
2r}	.
{2d	das
2c	beſt
2d	das
=4	=4
*lig	*
2.e	wir
4f	.
*Xlig	*
2g}	ge-
{2f	-ler-
1e	-net
=5	=5
*M4/2	*
1d	han,
2r}	.
{2d	von
=6	=6
2c	got-
2d	-tes
2.e	wort
4d	ʒu
=7	=7
*lig	*
1e	ſin-
2d	.
2e	.
*Xlig	*
=8	=8
1B	-gen,
2r}	.
{2B	hört
=9	=9
2c	ʒu,
2d	yr
2B	fraw-
2A	-en
=10	=10
2c	vnd
2d	yr
1e	man,
=11	=11
2r}	.
{2d	wie
2.c	man
4d	die
=12	=12
*M3/1	*
2e	ſe-
2f	-li-
2e}	-keit
{1d	ſol
2e	ge-
=13	=13
*lig	*
2f	-win-
2.g	.
4f	.
*Xlig	*
2e	.
2.d	.
4c#i	.
=14	=14
*M4/2	*
0d\ll}	-nen.
==	==
!!!GTL: Geistliche Volkslieder
!!!AGN: Romanze, Ballade, Lied, religioeses Lied
!! Erfurter Enchiridion I 1524
!!!ONB: ESAC (Essen Associative Code) Database: ALTDEU
!!!AMT: irregular
!!!AIN: vox
!!!EED: Helmut Schaffrath
!!!EEV: 1.0
!!!RDF**kern: i = editorial accidental
!!!RDF**kern: l = terminal long
!!!AMD: Dorian
!!!URL-scan: https://rosdok.uni-rostock.de/mcrviewer/recordIdentifier/rosdok_ppn738218359/iview2/phys_0806.iview2?x=113.63509606070716&y=2774.505579546094&scale=0.7106933083589261&rotation=0&layout=singlePageLayout&logicalDiv=log_0007
!!!ENC: Anna Maria Matuszewska
!!!EEV: 2024/25/03
*-	*-
